icons/breast_pump.svg

<svg width="48" height="48" viewBox="0 0 48 48" fill="none" xmlns="http://www.w3.org/2000/svg">
<path d="M24 32C25.12 32 26 31.0571 26 29.8571C26 28.7429 24 26 24 26C24 26 22 28.6571 22 29.8571C22 31.0571 22.88 32 24 32Z" fill="black"/>
<path fill-rule="evenodd" clip-rule="evenodd" d="M10.6488 21.3494C10.558 21.3433 10.4686 21.3285 10.3807 21.305C8.51353 20.8047 8.04282 16.507 9.32929 11.7058C10.6158 6.90458 13.1723 3.41802 15.0394 3.91831C15.1273 3.94187 15.2122 3.97385 15.2939 4.01391C15.3696 4.01625 15.4462 4.0273 15.5225 4.04775L17.2271 4.50449C17.241 4.50822 17.2549 4.51225 17.2686 4.51658C18.6112 4.93926 19.1722 6.2232 19.4707 7.69552C19.6813 8.7349 19.8029 10.0799 19.8882 11.7481L21.1424 12.0841C21.4284 11.1909 22.1217 10.4798 23.0038 10.1694C23.0672 7.43445 23.9251 5.56159 25.4408 4.61939C26.9899 3.65644 28.8734 3.88941 30.4138 4.5896C31.9681 5.29613 33.3998 6.56906 34.1713 8.07537C34.9613 9.61786 35.0836 11.4962 33.7808 13.1247C32.9014 14.224 32.5955 15.2253 32.6015 16.0869C32.6076 16.9575 32.933 17.7858 33.4875 18.5251C34.632 20.0511 36.598 21 38 21C38.5523 21 39 21.4477 39 22C39 22.5523 38.5523 23 38 23C35.9019 23 33.3679 21.6989 31.8875 19.7251C31.1294 18.7143 30.6111 17.4802 30.6016 16.1008C30.5919 14.7124 31.0985 13.2761 32.2191 11.8754C32.9163 11.0038 32.9136 10.0072 32.3912 8.98712C31.8502 7.9309 30.7818 6.95381 29.5862 6.41033C28.3766 5.8605 27.26 5.84345 26.4967 6.31797C25.7921 6.75594 25.0658 7.8175 25.0042 10.1722C26.1672 10.5852 27 11.6953 27 13V17.8027C28.5182 18.681 29.6159 20.2054 29.917 22C29.9716 22.3252 30 22.6593 30 23V23.6806L31.3522 24.75V31.625L32.8294 38.5625C33.486 40.7059 32.2451 44 29.1363 44H18.8637C15.7548 44 14.514 40.7059 15.1705 38.5625L16.6478 31.625V24.75L18 23.6806V23C18 22.6593 18.0284 22.3252 18.0829 22C18.384 20.2054 19.4817 18.681 21 17.8027V17.2223L18.7132 16.6096C17.7106 18.1737 16.8647 19.3917 16.1069 20.2495C15.1123 21.3753 13.9844 22.2067 12.6104 21.9015C12.5963 21.8984 12.5823 21.8949 12.5684 21.8912L10.8639 21.4345C10.7875 21.414 10.7156 21.3852 10.6488 21.3494ZM14.1589 12.9999C13.5632 15.2232 12.6935 17.0535 11.8406 18.2167C11.4873 18.6985 11.1797 19.0071 10.9483 19.1864C10.8376 18.9155 10.7255 18.4944 10.6605 17.9005C10.5035 16.4667 10.6654 14.4468 11.2611 12.2234C11.8569 10.0001 12.7266 8.16978 13.5795 7.00662C13.9328 6.52482 14.2404 6.21615 14.4717 6.03689C14.5825 6.30782 14.6945 6.72894 14.7596 7.32283C14.9166 8.75659 14.7547 10.7765 14.1589 12.9999ZM13.0234 19.9426L13.0602 19.9524C13.2786 19.9947 13.7053 19.9472 14.608 18.9253C15.471 17.9484 16.5255 16.3582 17.9794 14.0237C17.8875 11.2748 17.7695 9.37038 17.5105 8.09281C17.2397 6.75651 16.8939 6.50203 16.6836 6.42941L16.6469 6.41957C16.9858 8.21853 16.8225 10.7866 16.0908 13.5175C15.359 16.2485 14.2164 18.5541 13.0234 19.9426ZM25 17H23V13C23 12.4477 23.4477 12 24 12C24.5523 12 25 12.4477 25 13V17ZM20.126 22C20.57 20.2748 22.1361 19 24 19C25.8638 19 27.4299 20.2748 27.874 22H20.126ZM18.6478 25.7181L20.8203 24H27.1796L29.3522 25.7181V31.8356L30.1423 35.5463C29.7573 35.412 29.3035 35.2779 28.8042 35.1763C27.2876 34.8676 25.1931 34.8304 23.3931 36.2053C22.2476 37.0804 20.8422 37.1176 19.5951 36.8638C18.982 36.739 18.4453 36.5504 18.061 36.3919C17.921 36.3342 17.8028 36.2811 17.7104 36.2376L18.6478 31.8356V25.7181ZM17.285 38.2353L17.1084 39.0646L17.0828 39.1483C16.9235 39.6684 16.9852 40.4621 17.3463 41.1011C17.6615 41.6589 18.1324 42 18.8637 42H29.1363C29.8675 42 30.3385 41.6589 30.6537 41.1011C31.0147 40.4621 31.0765 39.6684 30.9171 39.1483L30.8915 39.0646L30.604 37.7143C30.5152 37.8745 30.5154 37.8746 30.5155 37.8747L30.5135 37.8736L30.49 37.8611C30.467 37.8491 30.4301 37.8301 30.3803 37.8057C30.2805 37.7569 30.1303 37.6868 29.9393 37.608C29.5551 37.4495 29.0183 37.2609 28.4053 37.1361C27.1582 36.8823 25.7528 36.9196 24.6072 37.7946C22.8073 39.1696 20.7127 39.1323 19.1962 38.8236C18.4274 38.6672 17.7664 38.4339 17.2984 38.2408L17.285 38.2353Z" fill="black"/>
</svg>

<svg
  xmlns="http://www.w3.org/2000/svg"
  width="24"
  height="24"
  viewBox="0 0 24 24"
  fill="none"
  stroke="currentColor"
  stroke-width="2"
  stroke-linecap="round"
  stroke-linejoin="round"
>
  <path d="M24 32c1.12 0 2-.943 2-2.143C26 28.743 24 26 24 26s-2 2.657-2 3.857S22.88 32 24 32" />
  <path
    fill-rule="evenodd"
    d="M10.649 21.35q-.136-.01-.268-.045c-1.867-.5-2.338-4.798-1.052-9.6 1.287-4.8 3.843-8.287 5.71-7.787q.132.036.255.096.114.003.229.034l1.704.456.042.013c1.342.422 1.903 1.706 2.202 3.179.21 1.039.332 2.384.417 4.052l1.254.336a3 3 0 0 1 1.862-1.915c.063-2.735.921-4.607 2.437-5.55 1.549-.963 3.432-.73 4.973-.03 1.554.707 2.986 1.98 3.757 3.486.79 1.543.913 3.421-.39 5.05-.88 1.099-1.185 2.1-1.18 2.962.007.87.332 1.699.886 2.438C34.633 20.051 36.598 21 38 21a1 1 0 1 1 0 2c-2.098 0-4.632-1.301-6.113-3.275-.758-1.01-1.276-2.245-1.285-3.624-.01-1.389.497-2.825 1.617-4.226.697-.871.695-1.868.172-2.888-.54-1.056-1.61-2.033-2.805-2.577-1.21-.55-2.326-.567-3.09-.092-.704.438-1.43 1.5-1.492 3.854A3 3 0 0 1 27 13v4.803A6 6 0 0 1 30 23v.68l1.352 1.07v6.875l1.477 6.938c.657 2.143-.584 5.437-3.693 5.437H18.864c-3.11 0-4.35-3.294-3.693-5.437l1.477-6.938V24.75L18 23.68V23q0-.511.083-1A6 6 0 0 1 21 17.803v-.58l-2.287-.613c-1.002 1.564-1.848 2.782-2.606 3.64-.995 1.125-2.123 1.957-3.497 1.651l-.042-.01-1.704-.456a1 1 0 0 1-.215-.086m3.51-8.35c-.596 2.223-1.466 4.053-2.318 5.217-.354.482-.661.79-.893.97-.11-.271-.223-.693-.287-1.287-.157-1.433.004-3.453.6-5.677s1.466-4.053 2.319-5.216c.353-.482.66-.79.892-.97.11.27.223.692.288 1.286.157 1.434-.005 3.454-.601 5.677m-1.136 6.943.037.01c.219.042.645-.006 1.548-1.028.863-.977 1.918-2.567 3.371-4.901-.091-2.75-.21-4.654-.468-5.931-.271-1.336-.617-1.591-.827-1.664l-.037-.01c.339 1.8.176 4.368-.556 7.099s-1.875 5.036-3.068 6.425M25 17h-2v-4a1 1 0 1 1 2 0zm-4.874 5a4.002 4.002 0 0 1 7.748 0zm-1.478 3.718L20.82 24h6.36l2.172 1.718v6.118l.79 3.71a10 10 0 0 0-1.338-.37c-1.516-.308-3.61-.346-5.41 1.03-1.146.874-2.552.912-3.799.658a8.6 8.6 0 0 1-1.885-.626l.938-4.402zm-1.363 12.517-.177.83-.025.083c-.16.52-.098 1.314.263 1.953.316.558.786.899 1.518.899h10.272c.732 0 1.203-.341 1.518-.899.36-.639.422-1.433.263-1.953l-.026-.083-.287-1.35-.088.16-.002-.001-.024-.013-.11-.055a8.568 8.568 0 0 0-1.975-.67c-1.247-.254-2.652-.216-3.798.659-1.8 1.375-3.894 1.337-5.41 1.029-.77-.157-1.43-.39-1.899-.583z"
    clip-rule="evenodd"
  />
</svg>
